X: 14161
T: From Galway To Dublin
R: hornpipe
M: 4/4
K: Dmajor
B,D|:EDEF EDB,D|GABG A2AB|dfgf edBA|GEEE D2 B,D|
EDEF EDB,D|GABG A2(3ABc|dfgf edBA|1 GEED E2B,D:|2 GEED E2 (3ABc||
|:efed B2BA|GFGB d2Bd|eged B2BA|GEEE D2B,D|
EDEF EDB,D|GABG A2(3ABc|dfgfe dBA|1 GEED E2 (3ABc:|2 GEED E4||

